X: 24
T: Toss The Feathers
Z: Will The Whistler
S: https://thesession.org/tunes/138#setting50415
R: reel
M: 4/4
L: 1/8
K: Dmix
|: D2 ED ADED | ABcA GECE | D2 ED ADED | AddB cAGE |
D2 ED ADED | ABcA GE E2 | cABG A2 AB |1 d2 {f}ed cAGE :|2 d2 {f}ed cAGB||
|: Ad ~d2 Ad ~d2 | Ad ~d2 {f}edcd | eaag a3 g | eaag aged |
efge afge | f2 ed dcAB | cABG A2 Ac |1 d2 {f}ed cAGB :|2 d2 {f}ed cAGE ||

